X: 1
T: Etz chayim hi'  [Dm]
T: It is a Tree of Life
M: C
L: 1/8
K: Dm
A, |\
"Dm"DE FG A3 A | "Gm"B>B dB "Dm"A3 F | "Dm"A2 GF "A7"A2 E2 | "Dm"F2 GF "A7"E3 A, | "Dm"DE FG A3 A |
"Gm"B>B dB "Dm"A3 F | "Dm"A2 {A}GF "A7"A2 E2 | "A7"GA/G/ FE "Dm"D3 |[| A, | "Dm"D3 E FE FD |
A2 A2 A4 | "Dm"D3 E FE FD | "Dm"A2 A2 "A7"A4 | "Dm"A3 d Hd4 | "Dm"df ed "A7"d2 H^c2 | "Dm"d2 AA "Gm"cB AG | "Dm"F2 "A7"E>D "Dm"D3 |]

%%sep 1 1 500
%%sep 1 1 500

